client/images/logo.svg

<svg width="276" height="225" viewBox="0 0 276 225" fill="none" xmlns="http://www.w3.org/2000/svg">
<path d="M9.01338 59.72C11.7062 62.3433 14.9672 64.3108 18.5434 65.47C25.2506 67.6095 32.4252 67.814 39.2434 66.06C41.8994 65.429 44.4175 64.3173 46.6734 62.78V44.54H36.6734V55.54C34.7491 55.9119 32.7933 56.0961 30.8334 56.09C28.2503 56.1375 25.691 55.59 23.3534 54.49C21.1784 53.4425 19.2753 51.9057 17.7934 50C16.2035 47.9091 15.029 45.5329 14.3334 43C13.5095 40.0721 13.1088 37.0414 13.1434 34C13.0835 30.688 13.5148 27.3855 14.4234 24.2C15.1559 21.705 16.3761 19.3802 18.0134 17.36C19.4526 15.6237 21.2825 14.253 23.3534 13.36C25.4271 12.4615 27.6633 11.9986 29.9234 12C31.8791 11.9993 33.8319 12.1531 35.7634 12.46V22.86H45.7634V3.86C43.7579 2.94667 41.6635 2.24293 39.5134 1.76C36.4853 1.10393 33.3912 0.801901 30.2934 0.859999C26.7009 0.877007 23.1324 1.44702 19.7134 2.55C16.1011 3.6869 12.7735 5.58256 9.95338 8.11C6.84994 10.9498 4.40603 14.4348 2.79338 18.32C0.940045 22.5533 0.0133781 27.7967 0.0133781 34.05C-0.117761 39.2809 0.716164 44.4913 2.47338 49.42C3.87767 53.2884 6.10965 56.8036 9.01338 59.72V59.72ZM64.3434 65.33C66.1346 65.9063 67.9619 66.364 69.8134 66.7C71.9362 67.0721 74.0882 67.2528 76.2434 67.24C79.5078 67.2631 82.7604 66.846 85.9134 66C88.7131 65.2682 91.3448 64.0016 93.6634 62.27C95.8265 60.6256 97.5762 58.4992 98.7734 56.06C100.035 53.3686 100.658 50.4219 100.593 47.45C100.706 44.4606 99.892 41.5094 98.2634 39C96.7396 36.769 94.7887 34.8623 92.5234 33.39C90.1632 31.8556 87.6455 30.5783 85.0134 29.58C82.3134 28.58 79.8134 27.52 77.5434 26.48C75.4937 25.5732 73.5709 24.4033 71.8234 23C71.081 22.4143 70.485 21.664 70.0824 20.8084C69.6797 19.9528 69.4815 19.0153 69.5034 18.07C69.4908 17.148 69.7149 16.2382 70.1544 15.4276C70.5938 14.6169 71.2339 13.9326 72.0134 13.44C74.0828 12.1812 76.4847 11.5781 78.9034 11.71C80.4422 11.7131 81.979 11.82 83.5034 12.03C84.9648 12.2214 86.4115 12.5121 87.8334 12.9C88.011 12.9582 88.1965 12.9886 88.3834 12.99V23.11H98.3834V4.6C95.6838 3.2534 92.7934 2.3293 89.8134 1.86C86.2054 1.18973 82.5431 0.854967 78.8734 0.859999C75.8384 0.823431 72.8181 1.28628 69.9334 2.23C67.416 3.05447 65.0804 4.35468 63.0534 6.06C61.1545 7.67251 59.6292 9.67893 58.5834 11.94C57.5092 14.2993 56.9729 16.868 57.0134 19.46C56.8765 22.5495 57.6897 25.6067 59.3434 28.22C60.8702 30.4457 62.8207 32.3486 65.0834 33.82C67.4224 35.3434 69.9331 36.5854 72.5634 37.52C75.2634 38.5067 77.7467 39.4767 80.0134 40.43C82.0771 41.2793 84.0097 42.4173 85.7534 43.81C86.5019 44.4065 87.1018 45.1685 87.5061 46.0361C87.9104 46.9037 88.108 47.8532 88.0834 48.81C88.1109 49.8933 87.8662 50.9663 87.3718 51.9306C86.8774 52.895 86.149 53.7199 85.2534 54.33C83.3734 55.7 80.7234 56.33 77.3234 56.33C75.5388 56.3605 73.7567 56.1826 72.0134 55.8C70.439 55.4358 68.8998 54.9338 67.4134 54.3L66.8634 54.11V45.11H56.8634V62.11C57.6534 62.53 58.6834 63.05 59.9634 63.66C61.3875 64.3066 62.8503 64.8644 64.3434 65.33V65.33ZM119.063 65.33C120.854 65.9075 122.682 66.3652 124.533 66.7C126.656 67.0732 128.808 67.254 130.963 67.24C134.224 67.2625 137.474 66.8454 140.623 66C143.424 65.2701 146.056 64.0034 148.373 62.27C150.536 60.6256 152.286 58.4992 153.483 56.06C154.745 53.3686 155.368 50.4219 155.303 47.45C155.423 44.4653 154.624 41.5158 153.013 39C151.483 36.7709 149.529 34.8647 147.263 33.39C144.914 31.8665 142.41 30.596 139.793 29.6C137.087 28.5733 134.593 27.54 132.313 26.5C130.242 25.5916 128.298 24.4148 126.533 23C125.791 22.4143 125.195 21.664 124.792 20.8084C124.39 19.9528 124.192 19.0153 124.213 18.07C124.196 17.1445 124.418 16.2302 124.858 15.4156C125.298 14.601 125.94 13.9137 126.723 13.42C128.79 12.1631 131.188 11.5601 133.603 11.69C135.142 11.6927 136.679 11.7996 138.203 12.01C139.668 12.2015 141.118 12.4921 142.543 12.88C142.717 12.939 142.9 12.9694 143.083 12.97V23.11H153.083V4.6C150.384 3.25178 147.494 2.3276 144.513 1.86C140.905 1.18927 137.243 0.854508 133.573 0.859999C130.538 0.823431 127.518 1.28628 124.633 2.23C122.116 3.05447 119.78 4.35468 117.753 6.06C115.854 7.67251 114.329 9.67893 113.283 11.94C112.203 14.2984 111.657 16.8661 111.683 19.46C111.547 22.5495 112.36 25.6067 114.013 28.22C115.543 30.4435 117.493 32.3459 119.753 33.82C122.095 35.3391 124.605 36.5808 127.233 37.52C129.94 38.4867 132.433 39.4567 134.713 40.43C136.78 41.2793 138.716 42.4173 140.463 43.81C141.209 44.4086 141.806 45.1712 142.209 46.0385C142.611 46.9058 142.808 47.8542 142.783 48.81C142.821 49.8899 142.587 50.9619 142.103 51.9281C141.619 52.8942 140.901 53.7234 140.013 54.34C138.133 55.71 135.483 56.34 132.083 56.34C130.29 56.3532 128.501 56.1552 126.753 55.75C125.175 55.3872 123.633 54.8853 122.143 54.25L121.593 54.06V45.06H111.593V62.06C112.383 62.48 113.423 63 114.693 63.61C116.113 64.2744 117.572 64.8489 119.063 65.33V65.33Z" fill="white"/>
<path d="M25.3034 96.9H24.9434L14.0634 79.31H1.45337V142.78H13.2434V107.96L12.7034 99.08H13.1534L23.7634 115.67H25.9334L36.0934 99.08H36.6334L36.1834 108.96V142.78H48.6034V79.31H36.0934L25.3034 96.9ZM60.3234 90.37H76.3734V131.72H60.3234V142.78H104.933V131.72H88.7934V90.37H104.933V79.31H60.3234V90.37ZM149.733 142.78H160.603V79.31H148.823V110.5L149.633 118.12H149.183L127.243 79.31H116.363V142.78H128.143V112.77L127.603 105.24H128.053L149.733 142.78V142.78ZM190.603 144.05C193.847 144.075 197.079 143.664 200.213 142.83C202.998 142.095 205.615 140.832 207.923 139.11C210.069 137.493 211.811 135.402 213.013 133C214.267 130.32 214.886 127.388 214.823 124.43C214.938 121.446 214.131 118.5 212.513 115.99C210.99 113.776 209.047 111.884 206.793 110.42C204.459 108.901 201.968 107.637 199.363 106.65C196.697 105.63 194.217 104.603 191.923 103.57C189.878 102.673 187.959 101.513 186.213 100.12C185.472 99.5427 184.877 98.7994 184.476 97.9501C184.075 97.1007 183.879 96.169 183.903 95.23C183.887 94.3096 184.107 93.4003 184.543 92.5895C184.979 91.7787 185.616 91.0936 186.393 90.6C188.452 89.3525 190.839 88.7532 193.243 88.88C194.776 88.8831 196.306 88.99 197.823 89.2C199.277 89.395 200.716 89.6823 202.133 90.06C202.307 90.119 202.49 90.1494 202.673 90.15V100.22H212.673V81.76C209.98 80.4024 207.092 79.4713 204.113 79C200.525 78.3347 196.883 77.9999 193.233 78C190.216 77.965 187.213 78.4244 184.343 79.36C181.841 80.1818 179.519 81.4751 177.503 83.17C175.595 84.7822 174.062 86.7926 173.013 89.06C171.945 91.4074 171.405 93.961 171.433 96.54C171.295 99.6081 172.101 102.645 173.743 105.24C175.26 107.459 177.2 109.355 179.453 110.82C181.78 112.332 184.278 113.563 186.893 114.49C189.56 115.457 192.037 116.423 194.323 117.39C196.379 118.235 198.305 119.366 200.043 120.75C200.791 121.347 201.388 122.109 201.789 122.977C202.19 123.845 202.383 124.794 202.353 125.75C202.381 126.826 202.138 127.891 201.647 128.848C201.156 129.806 200.433 130.625 199.543 131.23C197.663 132.563 195.033 133.23 191.653 133.23C189.866 133.243 188.084 133.045 186.343 132.64C184.776 132.279 183.243 131.781 181.763 131.15L181.223 130.96V121.96H171.223V138.82C172.003 139.25 173.033 139.76 174.303 140.37C175.734 141.033 177.203 141.607 178.703 142.09C180.484 142.664 182.302 143.118 184.143 143.45C186.274 143.847 188.436 144.048 190.603 144.05V144.05ZM238.313 116.31H244.753L260.353 142.78H275.673L255.543 109.96L273.403 79.31H259.263L244.753 105.24H238.313V79.31H225.893V142.78H238.313V116.31V116.31Z" fill="#FC4A4A"/>
<path d="M181.103 168.4H206.733V198C206.733 202.127 205.667 205.35 203.533 207.67C202.421 208.859 201.029 209.749 199.483 210.26C198.088 210.752 196.623 211.016 195.143 211.04C193.194 211.069 191.249 210.854 189.353 210.4C187.243 209.796 185.224 208.908 183.353 207.76L178.883 217.76C181.427 219.318 184.196 220.472 187.093 221.18C189.874 221.822 192.72 222.14 195.573 222.13C196.483 222.13 197.643 222.13 199.043 221.95C200.551 221.81 202.044 221.536 203.503 221.13C205.193 220.666 206.828 220.026 208.383 219.22C210.123 218.318 211.709 217.147 213.083 215.75C215.328 213.486 216.974 210.699 217.873 207.64C218.771 204.465 219.216 201.179 219.193 197.88V157.28H181.103V168.4ZM267.603 188.51C265.254 186.984 262.746 185.717 260.123 184.73C257.423 183.73 254.923 182.66 252.653 181.63C250.594 180.728 248.661 179.562 246.903 178.16C246.16 177.577 245.562 176.829 245.158 175.975C244.754 175.121 244.553 174.185 244.573 173.24C244.556 172.314 244.778 171.4 245.218 170.586C245.658 169.771 246.3 169.084 247.083 168.59C249.15 167.324 251.553 166.717 253.973 166.85C255.512 166.853 257.049 166.96 258.573 167.17C260.033 167.371 261.479 167.662 262.903 168.04C263.081 168.098 263.266 168.129 263.453 168.13V178.25H273.453V159.74C270.763 158.397 267.883 157.473 264.913 157C261.318 156.332 257.67 155.997 254.013 156C250.978 155.963 247.958 156.426 245.073 157.37C242.555 158.192 240.219 159.493 238.193 161.2C236.294 162.813 234.769 164.819 233.723 167.08C232.638 169.44 232.091 172.012 232.123 174.61C231.988 177.696 232.801 180.75 234.453 183.36C235.98 185.589 237.93 187.495 240.193 188.97C242.533 190.49 245.043 191.729 247.673 192.66C250.373 193.66 252.873 194.66 255.153 195.58C257.216 196.426 259.149 197.561 260.893 198.95C261.641 199.547 262.241 200.309 262.645 201.177C263.049 202.044 263.247 202.993 263.223 203.95C263.249 205.033 263.004 206.105 262.509 207.069C262.015 208.033 261.288 208.859 260.393 209.47C258.513 210.83 255.863 211.47 252.463 211.47C250.666 211.481 248.874 211.279 247.123 210.87C245.548 210.51 244.008 210.008 242.523 209.37L241.973 209.19V200.19H231.973V217.19C232.763 217.62 233.793 218.14 235.073 218.74C236.507 219.413 237.984 219.991 239.493 220.47C241.283 221.051 243.111 221.509 244.963 221.84C247.086 222.216 249.238 222.4 251.393 222.39C254.657 222.416 257.91 222.003 261.063 221.16C263.864 220.425 266.495 219.155 268.813 217.42C270.976 215.779 272.726 213.656 273.923 211.22C275.185 208.525 275.808 205.575 275.743 202.6C275.862 199.6 275.048 196.638 273.413 194.12C271.869 191.882 269.894 189.975 267.603 188.51V188.51Z" fill="white"/>
<path d="M161.791 6.99164L168.777 0.00543064L175.764 6.99165L168.777 13.9779L161.791 6.99164Z" fill="white"/>
<path d="M260.844 20.9229L267.83 13.9367L274.817 20.9229L267.83 27.9091L260.844 20.9229Z" fill="white"/>
<path d="M260.855 48.8134L267.841 41.8271L274.828 48.8133L267.841 55.7996L260.855 48.8134Z" fill="white"/>
<path d="M161.791 35.1602L168.777 28.174L175.763 35.1602L168.777 42.1464L161.791 35.1602Z" fill="white"/>
<path d="M219.018 34.5828L226.005 27.5966L232.991 34.5828L226.005 41.569L219.018 34.5828Z" fill="white"/>
<path d="M190.838 62.7556L197.824 55.7694L204.81 62.7556L197.824 69.7418L190.838 62.7556Z" fill="white"/>
<path d="M253.883 69.74L260.863 62.76L246.923 48.81L260.863 34.87V34.86L246.923 20.93L260.863 6.99L253.883 0.01L239.943 13.94L226.003 0L219.013 6.98L246.903 34.87L219.013 62.75L226.003 69.73L239.943 55.8L253.883 69.74V69.74ZM218.743 48.81L197.823 27.89V27.9L197.813 27.89L176.893 48.81L183.883 55.8L197.823 41.86L211.763 55.8L218.743 48.81V48.81Z" fill="white"/>
<path d="M183.883 27.91L197.823 13.97L211.763 27.91L218.743 20.93L197.823 0.0100098H197.813L176.893 20.93L183.883 27.91V27.91Z" fill="white"/>
<path d="M161.786 62.7571L168.772 55.7709L175.758 62.7571L168.772 69.7434L161.786 62.7571Z" fill="white"/>
<path d="M181.834 189.119L188.82 182.133L195.807 189.119L188.82 196.105L181.834 189.119Z" fill="white"/>
<path d="M7.01896 168.616L0 175.635L7.019 182.654L14.038 175.635L7.01896 168.616Z" fill="white"/>
<path d="M50.8261 154.6L43.8071 161.619L50.8261 168.638L57.845 161.619L50.8261 154.6Z" fill="white"/>
<path d="M49.9399 210.546L42.9209 217.565L49.9399 224.584L56.9588 217.565L49.9399 210.546Z" fill="white"/>
<path d="M35.9465 196.358L28.9275 203.377L35.9464 210.396L42.9654 203.377L35.9465 196.358Z" fill="white"/>
<path d="M92.278 168.607L85.259 175.626L92.278 182.645L99.297 175.626L92.278 168.607Z" fill="white"/>
<path d="M106.334 154.566L99.3154 161.585L106.334 168.604L113.353 161.585L106.334 154.566Z" fill="white"/>
<path d="M78.255 154.571L71.2361 161.59L78.255 168.609L85.274 161.59L78.255 154.571Z" fill="white"/>
<path d="M106.008 210.265L98.9888 217.284L106.008 224.303L113.027 217.284L106.008 210.265Z" fill="white"/>
<path d="M64.2311 169.336L44.0918 189.455L64.2311 209.594L84.3496 189.455L64.2311 169.336ZM57.4555 189.455L64.2311 182.7L70.986 189.455L64.2311 196.23L57.4555 189.455Z" fill="white"/>
<path d="M42.1748 175.189L21.8794 154L15.135 161.056L28.6862 175.189L1.91699 203.022L22.0251 223.972L28.7694 216.938L15.4681 203.065L42.1748 175.189Z" fill="white"/>
<path d="M120.165 169.336L113.066 176.237L113.087 176.259L106.142 182.969L70.9304 217.092L78.0515 223.972L113.241 189.87L127.483 176.068L120.165 169.336Z" fill="white"/>
<path d="M162.039 154L155.02 161.019L162.039 168.038L169.058 161.019L162.039 154Z" fill="white"/>
<path d="M133.92 154.005L126.901 161.024L133.92 168.043L140.939 161.024L133.92 154.005Z" fill="white"/>
<path d="M148.398 169.336L127.117 189.857L141.371 203.579L133.99 210.695L120.243 197.44L113.105 204.344L134.056 223.972L155.426 203.579L169.658 189.857L148.398 169.336ZM148.398 196.739L141.238 189.857L148.398 182.953L155.536 189.857L148.398 196.739Z" fill="white"/>
<path d="M162.059 210.268L155.04 217.287L162.059 224.306L169.077 217.287L162.059 210.268Z" fill="white"/>
</svg>

<svg xmlns="http://www.w3.org/2000/svg" viewBox="0 0 275.66 224.2">
    <defs><style>.cls-1{fill:#fff}</style></defs><g id="Layer_2" data-name="Layer 2"><g id="Layer_1-2" data-name="Layer 1"><path class="cls-1" d="M9 59.72a24.47 24.47 0 0 0 9.53 5.75 37.43 37.43 0 0 0 20.7.59 22.38 22.38 0 0 0 7.43-3.28V44.54h-10v11a30.28 30.28 0 0 1-5.84.55 16.84 16.84 0 0 1-7.48-1.6A15.64 15.64 0 0 1 17.78 50a20.56 20.56 0 0 1-3.46-7 31.89 31.89 0 0 1-1.19-9 33.52 33.52 0 0 1 1.28-9.8A19.66 19.66 0 0 1 18 17.36a14.28 14.28 0 0 1 5.34-4A16.5 16.5 0 0 1 29.91 12a37.13 37.13 0 0 1 5.84.46v10.4h10v-19a32 32 0 0 0-6.25-2.1 40 40 0 0 0-9.22-.9A35 35 0 0 0 19.7 2.55a26.58 26.58 0 0 0-9.76 5.56 28.81 28.81 0 0 0-7.16 10.21Q0 24.67 0 34.05a42.59 42.59 0 0 0 2.46 15.37A28.27 28.27 0 0 0 9 59.72zm55.33 5.61a42.83 42.83 0 0 0 5.47 1.37 36 36 0 0 0 6.43.54A36.32 36.32 0 0 0 85.9 66a22.43 22.43 0 0 0 7.75-3.73 17.47 17.47 0 0 0 5.11-6.21 19.29 19.29 0 0 0 1.82-8.61A14.52 14.52 0 0 0 98.25 39a20.44 20.44 0 0 0-5.74-5.61A39.44 39.44 0 0 0 85 29.58c-2.7-1-5.2-2.06-7.47-3.1A25.82 25.82 0 0 1 71.81 23a6.1 6.1 0 0 1-2.32-4.93A5.39 5.39 0 0 1 72 13.44a12 12 0 0 1 6.89-1.73 34.21 34.21 0 0 1 4.6.32 32.48 32.48 0 0 1 4.33.87 1.81 1.81 0 0 0 .55.09v10.12h10V4.6a29.47 29.47 0 0 0-8.57-2.74 59.45 59.45 0 0 0-10.94-1 27.68 27.68 0 0 0-8.94 1.37 20.69 20.69 0 0 0-6.88 3.83 17.17 17.17 0 0 0-4.47 5.88A17.49 17.49 0 0 0 57 19.46a15.13 15.13 0 0 0 2.33 8.76 20.54 20.54 0 0 0 5.74 5.6 35.46 35.46 0 0 0 7.48 3.7Q76.6 39 80 40.43a23.57 23.57 0 0 1 5.74 3.38 6.19 6.19 0 0 1 2.33 5 6.48 6.48 0 0 1-2.83 5.52c-1.88 1.37-4.53 2-7.93 2A22.94 22.94 0 0 1 72 55.8a27.57 27.57 0 0 1-4.6-1.5l-.55-.19v-9h-10v17c.79.42 1.82.94 3.1 1.55a37.85 37.85 0 0 0 4.38 1.67zm54.72 0a42.41 42.41 0 0 0 5.47 1.37 35.79 35.79 0 0 0 6.43.54 36.3 36.3 0 0 0 9.66-1.24 22.35 22.35 0 0 0 7.75-3.73 17.47 17.47 0 0 0 5.11-6.21 19.29 19.29 0 0 0 1.82-8.61A14.59 14.59 0 0 0 153 39a20.61 20.61 0 0 0-5.75-5.61 39.65 39.65 0 0 0-7.47-3.79q-4.06-1.54-7.48-3.1a25.82 25.82 0 0 1-5.78-3.5 6.1 6.1 0 0 1-2.32-4.93 5.38 5.38 0 0 1 2.51-4.65 12 12 0 0 1 6.88-1.73 34.09 34.09 0 0 1 4.6.32 32.64 32.64 0 0 1 4.34.87 1.7 1.7 0 0 0 .54.09v10.14h10V4.6a29.36 29.36 0 0 0-8.57-2.74 59.37 59.37 0 0 0-10.94-1 27.68 27.68 0 0 0-8.94 1.37 20.69 20.69 0 0 0-6.88 3.83 17.17 17.17 0 0 0-4.47 5.88 17.63 17.63 0 0 0-1.6 7.52 15.13 15.13 0 0 0 2.33 8.76 20.67 20.67 0 0 0 5.74 5.6 36 36 0 0 0 7.48 3.7q4.06 1.45 7.48 2.91a23.64 23.64 0 0 1 5.75 3.38 6.21 6.21 0 0 1 2.32 5 6.46 6.46 0 0 1-2.77 5.53c-1.88 1.37-4.53 2-7.93 2a22.85 22.85 0 0 1-5.33-.59 27.39 27.39 0 0 1-4.61-1.5l-.55-.19v-9h-10v17c.79.42 1.83.94 3.1 1.55a37.36 37.36 0 0 0 4.37 1.72z"/><path d="M25.29 96.9h-.36L14.05 79.31H1.44v63.47h11.79v-34.82l-.54-8.88h.45l10.61 16.59h2.17l10.16-16.59h.54l-.45 9.88v33.82h12.42V79.31H36.08L25.29 96.9zm35.02-6.53h16.05v41.35H60.31v11.06h44.61v-11.06H88.78V90.37h16.14V79.31H60.31v11.06zm89.41 52.41h10.87V79.31h-11.78v31.19l.81 7.62h-.45l-21.94-38.81h-10.88v63.47h11.78v-30.01l-.54-7.53h.45l21.68 37.54zm40.87 1.27a36.28 36.28 0 0 0 9.61-1.22 22.48 22.48 0 0 0 7.71-3.72A17.41 17.41 0 0 0 213 133a19.27 19.27 0 0 0 1.81-8.57 14.55 14.55 0 0 0-2.31-8.44 20.5 20.5 0 0 0-5.72-5.57 38.93 38.93 0 0 0-7.43-3.77q-4-1.53-7.44-3.08a25.71 25.71 0 0 1-5.71-3.45 6 6 0 0 1-2.31-4.89 5.37 5.37 0 0 1 2.49-4.63 12 12 0 0 1 6.85-1.72 33.92 33.92 0 0 1 4.58.32 34.58 34.58 0 0 1 4.31.86 1.7 1.7 0 0 0 .54.09v10.07h10V81.76A29.13 29.13 0 0 0 204.1 79a59.67 59.67 0 0 0-10.88-1 27.64 27.64 0 0 0-8.89 1.36 20.63 20.63 0 0 0-6.84 3.81 17.12 17.12 0 0 0-4.49 5.89 17.59 17.59 0 0 0-1.58 7.48 15 15 0 0 0 2.31 8.7 20.36 20.36 0 0 0 5.71 5.58 35.29 35.29 0 0 0 7.44 3.67q4 1.45 7.43 2.9a23.58 23.58 0 0 1 5.72 3.36 6.15 6.15 0 0 1 2.31 5 6.43 6.43 0 0 1-2.81 5.48q-2.82 2-7.89 2a22.68 22.68 0 0 1-5.31-.59 27.33 27.33 0 0 1-4.58-1.49l-.54-.19v-9h-10v16.86c.78.43 1.81.94 3.08 1.55a38.62 38.62 0 0 0 4.4 1.72 42 42 0 0 0 5.44 1.36 35.42 35.42 0 0 0 6.46.6zm47.71-27.74h6.44l15.6 26.47h15.32l-20.13-32.82 17.86-30.65h-14.14l-14.51 25.93h-6.44V79.31h-12.42v63.47h12.42v-26.47z" fill="#fc4a4a"/><path class="cls-1" d="M181.09 168.4h25.63V198q0 6.19-3.2 9.67a9.72 9.72 0 0 1-4.05 2.59 13.71 13.71 0 0 1-4.34.78 23.41 23.41 0 0 1-5.79-.64 24.2 24.2 0 0 1-6-2.64l-4.47 10a28.82 28.82 0 0 0 8.21 3.42 37.11 37.11 0 0 0 8.48.95c.91 0 2.07 0 3.47-.18a25.35 25.35 0 0 0 4.46-.82 24.94 24.94 0 0 0 4.88-1.91 18.59 18.59 0 0 0 4.7-3.47 19.21 19.21 0 0 0 4.79-8.11 35 35 0 0 0 1.32-9.76v-40.6h-38.09zm86.5 20.11a38.84 38.84 0 0 0-7.48-3.78c-2.7-1-5.2-2.07-7.47-3.1a25.83 25.83 0 0 1-5.75-3.47 6.09 6.09 0 0 1-2.33-4.92 5.38 5.38 0 0 1 2.51-4.65 11.93 11.93 0 0 1 6.89-1.74 34.21 34.21 0 0 1 4.6.32 36 36 0 0 1 4.33.87 1.81 1.81 0 0 0 .55.09v10.12h10v-18.51a29.49 29.49 0 0 0-8.54-2.74 59.45 59.45 0 0 0-10.9-1 27.68 27.68 0 0 0-8.94 1.37 20.59 20.59 0 0 0-6.88 3.83 17.17 17.17 0 0 0-4.47 5.88 17.5 17.5 0 0 0-1.6 7.53 15.12 15.12 0 0 0 2.33 8.75 20.58 20.58 0 0 0 5.74 5.61 35.43 35.43 0 0 0 7.48 3.69c2.7 1 5.2 2 7.48 2.92a23.56 23.56 0 0 1 5.74 3.37 6.2 6.2 0 0 1 2.33 5 6.5 6.5 0 0 1-2.83 5.52c-1.88 1.36-4.53 2-7.93 2a22.87 22.87 0 0 1-5.34-.6 26.68 26.68 0 0 1-4.6-1.5l-.55-.18v-9h-10v17c.79.43 1.82.95 3.1 1.55a36.16 36.16 0 0 0 4.42 1.73 41.22 41.22 0 0 0 5.47 1.37 35.92 35.92 0 0 0 6.43.55 36.32 36.32 0 0 0 9.67-1.23 22.45 22.45 0 0 0 7.75-3.74 17.43 17.43 0 0 0 5.11-6.2 19.33 19.33 0 0 0 1.82-8.62 14.52 14.52 0 0 0-2.33-8.48 20.44 20.44 0 0 0-5.81-5.61z"/><path class="cls-1" transform="rotate(-45 168.764 6.986)" d="M163.82 2.05h9.88v9.88h-9.88z"/><path class="cls-1" transform="rotate(-45 7.83 175.466)" d="M2.89 170.53h9.88v9.88H2.89z"/><path class="cls-1" transform="rotate(-45 51.407 161.527)" d="M46.47 156.58h9.88v9.88h-9.88z"/><path class="cls-1" transform="rotate(-45 50.531 217.21)" d="M45.6 212.28h9.88v9.88H45.6z"/><path class="cls-1" transform="rotate(-45 36.592 203.063)" d="M31.65 198.12h9.88V208h-9.88z"/><path class="cls-1" transform="rotate(-45 106.306 161.526)" d="M101.37 156.58h9.88v9.88h-9.88z"/><path class="cls-1" transform="rotate(-45 92.658 175.46)" d="M87.72 170.53h9.88v9.88h-9.88z"/><path class="cls-1" transform="rotate(-45 78.716 161.525)" d="M73.77 156.58h9.88v9.88h-9.88z"/><path class="cls-1" transform="rotate(-45 106.313 216.924)" d="M101.37 211.98h9.88v9.88h-9.88z"/><path class="cls-1" d="M64.69 168.34l-20.77 20.78 20.77 20.77 20.78-20.77zm-7 20.78l7-7 7 7-7 7zm83.88.1l13.91-13.91-20.78-20.77-20.78 20.77 13.91 13.91-13.91 13.91 20.78 20.78 20.78-20.78zm-13.85-13.91l7-7 7 7-7 7zm0 27.82l7-7 7 7-7 7zm-84.37-27.59l-20.99-21-6.99 6.98 14.02 14.01-27.67 27.6 20.78 20.78 6.98-6.99-13.76-13.75 27.63-27.63z"/><path class="cls-1" transform="rotate(-45 92.72 203.134)" d="M68.28 198.19h48.89v9.88H68.28z"/><path class="cls-1" transform="rotate(-45 267.81 20.93)" d="M262.88 15.99h9.88v9.88h-9.88z"/><path class="cls-1" transform="rotate(-45 267.816 48.807)" d="M262.88 43.88h9.88v9.88h-9.88z"/><path class="cls-1" transform="rotate(-45 168.762 35.156)" d="M163.82 30.22h9.88v9.88h-9.88z"/><path class="cls-1" transform="rotate(-45 225.994 34.58)" d="M221.05 29.64h9.88v9.88h-9.88z"/><path class="cls-1" transform="rotate(-45 197.805 62.757)" d="M192.87 57.82h9.88v9.88h-9.88z"/><path class="cls-1" d="M253.87 69.74l6.98-6.98-13.94-13.95 13.94-13.94v-.01l-13.94-13.93 13.94-13.94-6.98-6.98-13.94 13.93L225.99 0 219 6.98l27.89 27.89L219 62.75l6.99 6.98 13.94-13.93 13.94 13.94zm-35.14-20.93l-20.92-20.92v.01l-.01-.01-20.92 20.92 6.99 6.99 13.94-13.94 13.94 13.94 6.98-6.99z"/><path class="cls-1" d="M183.87 27.91l13.94-13.94 13.94 13.94 6.98-6.98L197.81.01h-.01l-20.92 20.92 6.99 6.98z"/><path class="cls-1" transform="rotate(-45 168.756 62.76)" d="M163.82 57.82h9.88v9.88h-9.88z"/><path class="cls-1" transform="rotate(-45 162.085 160.942)" d="M157.14 156h9.88v9.88h-9.88z"/><path class="cls-1" transform="rotate(-45 162.083 189.113)" d="M157.14 184.18h9.88v9.88h-9.88z"/><path class="cls-1" transform="rotate(-45 188.807 189.123)" d="M183.87 184.18h9.88v9.88h-9.88z"/><path class="cls-1" transform="rotate(-45 162.074 216.927)" d="M157.14 211.98h9.88v9.88h-9.88z"/></g></g>
</svg>
